icons/evolbuntu-dark-fallback/actions/16/reload.svg

<?xml version="1.0" encoding="UTF-8" standalone="no"?>
<!-- Created with Inkscape (http://www.inkscape.org/) -->
<svg id="svg13094" xmlns:rdf="http://www.w3.org/1999/02/22-rdf-syntax-ns#" xmlns="http://www.w3.org/2000/svg" height="16" width="16" version="1.1" xmlns:cc="http://creativecommons.org/ns#" xmlns:xlink="http://www.w3.org/1999/xlink" xmlns:dc="http://purl.org/dc/elements/1.1/">
	<defs id="defs13096"></defs>
	<metadata id="metadata13099">
		<rdf:RDF>
			<cc:Work rdf:about="">
				<dc:format>image/svg+xml</dc:format>
				<dc:type rdf:resource="http://purl.org/dc/dcmitype/StillImage"/>
				<dc:title/>
			</cc:Work>
		</rdf:RDF>
	</metadata>
	<path id="path3037" style="enable-background:accumulate;color:#000000;" d="M8,1c-1.9282,0-3.6705,0.8026-4.9375,2.0625l-1.0625-1.0625h-1v4h5l-1.53125-1.53125c0.9011-0.9097,2.14815-1.46875,3.53125-1.46875,2.7614,0,5,2.2386,5,5h2c0-3.866-3.134-7-7-7zm-7,7c0,3.866,3.134,7,7,7,1.9282,0,3.6705-0.8026,4.9375-2.0625l1.0625,1.0625h1v-4h-5l1.53125,1.53125c-0.9011,0.9098-2.14815,1.46875-3.53125,1.46875-2.7614,0-5-2.2386-5-5h-2z" fill-opacity="0.6745098" fill-rule="nonzero" fill="#434a54"/>
	<path id="path3054" style="baseline-shift:baseline;block-progression:tb;color:#000000;direction:ltr;text-indent:0;text-align:start;enable-background:accumulate;text-transform:none;" d="M8,0c-2.5117,0-4.26575,0.53135-5.90625,2.09375l0.96875,0.96875c1.267-1.2599,3.0093-2.0625,4.9375-2.0625,3.866,0,7,3.134,7,7,0.5082-4.1101-2.2811-8-7-8zm-8,0.75,0,5.25,1,1,6,0-1-1-5,0,0-4.25-1-1zm8,2.25c-1.3831,0-2.63005,0.55895-3.53125,1.46875l0.90625,0.90625c0.6245-0.6949,1.7484-1.375,2.625-1.375,2.0843,0,4.3056,1.3299,5,4,0-2.7614-2.2386-5-5-5zm-7,5c-0.5082,4.1101,2.2811,8,7,8,2.5117,0,4.26575-0.53135,5.90625-2.09375l-0.96875-0.96875c-1.267,1.2599-3.0093,2.0625-4.9375,2.0625-3.866,0-7-3.134-7-7zm2,0c0,2.7614,2.2386,5,5,5,1.3831,0,2.63005-0.55895,3.53125-1.46875l-0.90625-0.90625c-0.6245,0.6949-1.7484,1.375-2.625,1.375-2.0843,0-4.3056-1.3299-5-4zm6,1,1,1,5,0,0,4.25,1,1v-5.25l-1-1h-6z" fill-opacity="0.74329164" fill-rule="nonzero" fill="#d1d4d6"/>
</svg>

<?xml version="1.0" encoding="UTF-8" standalone="no"?>
<!-- Created with Inkscape (http://www.inkscape.org/) -->

<svg
   xmlns:dc="http://purl.org/dc/elements/1.1/"
   xmlns:cc="http://creativecommons.org/ns#"
   xmlns:rdf="http://www.w3.org/1999/02/22-rdf-syntax-ns#"
   xmlns:svg="http://www.w3.org/2000/svg"
   xmlns="http://www.w3.org/2000/svg"
   xmlns:xlink="http://www.w3.org/1999/xlink"
   xmlns:sodipodi="http://sodipodi.sourceforge.net/DTD/sodipodi-0.dtd"
   xmlns:inkscape="http://www.inkscape.org/namespaces/inkscape"
   width="16"
   height="16"
   id="svg13094"
   version="1.1"
   inkscape:version="0.48.4 r9939"
   sodipodi:docname="reload.svg">
  <sodipodi:namedview
     id="base"
     pagecolor="#ffffff"
     bordercolor="#666666"
     borderopacity="1.0"
     inkscape:pageopacity="0.0"
     inkscape:pageshadow="2"
     inkscape:zoom="32.000001"
     inkscape:cx="13.046312"
     inkscape:cy="9.1366833"
     inkscape:document-units="px"
     inkscape:current-layer="layer1"
     showgrid="false"
     inkscape:snap-bbox="true"
     inkscape:bbox-paths="true"
     inkscape:bbox-nodes="true"
     inkscape:snap-bbox-edge-midpoints="true"
     inkscape:snap-bbox-midpoints="true"
     inkscape:object-paths="true"
     inkscape:snap-intersection-paths="true"
     inkscape:object-nodes="true"
     inkscape:snap-smooth-nodes="true"
     inkscape:snap-midpoints="true"
     inkscape:snap-object-midpoints="true"
     inkscape:snap-center="true"
     showguides="true"
     inkscape:guide-bbox="true"
     inkscape:window-width="1920"
     inkscape:window-height="1016"
     inkscape:window-x="-5"
     inkscape:window-y="27"
     inkscape:window-maximized="1"
     inkscape:snap-global="false"
     fit-margin-top="0"
     fit-margin-left="0"
     fit-margin-right="0"
     fit-margin-bottom="0"
     showborder="true"
     inkscape:showpageshadow="false">
    <inkscape:grid
       type="xygrid"
       id="grid3183"
       empspacing="5"
       visible="true"
       enabled="true"
       snapvisiblegridlinesonly="true"
       originx="9.5192791e-05px"
       originy="10.999988px" />
  </sodipodi:namedview>
  <defs
     id="defs13096">
    <linearGradient
       id="linearGradient7209-1">
      <stop
         id="stop7211-8"
         offset="0"
         style="stop-color:#6e6e6e;stop-opacity:0.61170512;" />
      <stop
         id="stop7213-9"
         offset="1"
         style="stop-color:#000000;stop-opacity:0.65503657;" />
    </linearGradient>
    <linearGradient
       id="linearGradient9097">
      <stop
         style="stop-color:#ffffff;stop-opacity:0.61564434;"
         offset="0"
         id="stop9099" />
      <stop
         style="stop-color:#ffffff;stop-opacity:1;"
         offset="1"
         id="stop9101" />
    </linearGradient>
    <linearGradient
       id="linearGradient7251">
      <stop
         style="stop-color:#000000;stop-opacity:0.39561057;"
         offset="0"
         id="stop7253" />
      <stop
         style="stop-color:#000000;stop-opacity:0.2824986;"
         offset="1"
         id="stop7255" />
    </linearGradient>
    <linearGradient
       inkscape:collect="always"
       xlink:href="#linearGradient7209-1"
       id="linearGradient3091"
       gradientUnits="userSpaceOnUse"
       x1="-3195.6418"
       y1="493.84024"
       x2="-3195.6418"
       y2="36.123241" />
    <linearGradient
       inkscape:collect="always"
       xlink:href="#linearGradient9097"
       id="linearGradient3093"
       gradientUnits="userSpaceOnUse"
       gradientTransform="translate(19.900645,19.900678)"
       x1="-3195.6418"
       y1="493.84024"
       x2="-3195.6418"
       y2="36.123241" />
    <linearGradient
       inkscape:collect="always"
       xlink:href="#linearGradient7251"
       id="linearGradient3095"
       gradientUnits="userSpaceOnUse"
       x1="-3673.2571"
       y1="513.74091"
       x2="-3673.2571"
       y2="36.124592" />
  </defs>
  <metadata
     id="metadata13099">
    <rdf:RDF>
      <cc:Work
         rdf:about="">
        <dc:format>image/svg+xml</dc:format>
        <dc:type
           rdf:resource="http://purl.org/dc/dcmitype/StillImage" />
        <dc:title />
      </cc:Work>
    </rdf:RDF>
  </metadata>
  <g
     transform="translate(9398.6161,-4997.8786)"
     id="layer1"
     inkscape:groupmode="layer"
     inkscape:label="Camada 1">
    <path
       style="color:#000000;fill:#434a54;fill-opacity:0.6745098;fill-rule:nonzero;stroke:none;stroke-width:1;marker:none;visibility:visible;display:inline;overflow:visible;enable-background:accumulate"
       d="M 8 1 C 6.0718 1 4.3295 1.8026 3.0625 3.0625 L 2 2 L 1 2 L 1 6 L 6 6 L 4.46875 4.46875 C 5.36985 3.55905 6.6169 3 8 3 C 10.7614 3 13 5.2386 13 8 L 15 8 C 15 4.134 11.866 1 8 1 z M 1 8 C 1 11.866 4.134 15 8 15 C 9.9282 15 11.6705 14.1974 12.9375 12.9375 L 14 14 L 15 14 L 15 10 L 10 10 L 11.53125 11.53125 C 10.63015 12.44105 9.3831 13 8 13 C 5.2386 13 3 10.7614 3 8 L 1 8 z "
       transform="translate(-9398.6161,4997.8786)"
       id="path3037" />
    <path
       style="font-size:medium;font-style:normal;font-variant:normal;font-weight:normal;font-stretch:normal;text-indent:0;text-align:start;text-decoration:none;line-height:normal;letter-spacing:normal;word-spacing:normal;text-transform:none;direction:ltr;block-progression:tb;writing-mode:lr-tb;text-anchor:start;baseline-shift:baseline;color:#000000;fill:#d1d4d6;fill-opacity:0.74329164;fill-rule:nonzero;stroke:none;stroke-width:2;marker:none;visibility:visible;display:inline;overflow:visible;enable-background:accumulate;font-family:Sans;-inkscape-font-specification:Sans"
       d="M 8 0 C 5.4883 0 3.73425 0.53135 2.09375 2.09375 L 3.0625 3.0625 C 4.3295 1.8026 6.0718 1 8 1 C 11.866 1 15 4.134 15 8 C 15.5082 3.8899 12.7189 0 8 0 z M 0 0.75 L 0 6 L 1 7 L 7 7 L 6 6 L 1 6 L 1 1.75 L 0 0.75 z M 8 3 C 6.6169 3 5.36995 3.55895 4.46875 4.46875 L 5.375 5.375 C 5.9995 4.6801 7.1234 4 8 4 C 10.0843 4 12.3056 5.3299 13 8 C 13 5.2386 10.7614 3 8 3 z M 1 8 C 0.4918 12.1101 3.2811 16 8 16 C 10.5117 16 12.26575 15.46865 13.90625 13.90625 L 12.9375 12.9375 C 11.6705 14.1974 9.9282 15 8 15 C 4.134 15 1 11.866 1 8 z M 3 8 C 3 10.7614 5.2386 13 8 13 C 9.3831 13 10.63005 12.44105 11.53125 11.53125 L 10.625 10.625 C 10.0005 11.3199 8.8766 12 8 12 C 5.9157 12 3.6944 10.6701 3 8 z M 9 9 L 10 10 L 15 10 L 15 14.25 L 16 15.25 L 16 10 L 15 9 L 9 9 z "
       transform="translate(-9398.6161,4997.8786)"
       id="path3054" />
    <g
       transform="matrix(0.02512477,0,0,0.02512477,-9310.3262,5038.971)"
       id="16">
      <rect
         y="-43.478539"
         x="-3514.0554"
         height="636.82166"
         width="636.82166"
         id="rect3044"
         style="opacity:0.00100002;fill:#ffffff;fill-opacity:1;fill-rule:nonzero;stroke:none" />
      <g
         transform="matrix(0.02512477,0,0,0.02512477,-9310.3255,4998.9715)"
         id="use3046">
        <path
           inkscape:connector-curvature="0"
           style="font-size:medium;font-style:normal;font-variant:normal;font-weight:normal;font-stretch:normal;text-indent:0;text-align:start;text-decoration:none;line-height:normal;letter-spacing:normal;word-spacing:normal;text-transform:none;direction:ltr;block-progression:tb;writing-mode:lr-tb;text-anchor:start;baseline-shift:baseline;color:#000000;fill:url(#linearGradient3091);fill-opacity:1;stroke:none;stroke-width:2;marker:none;visibility:visible;display:inline;overflow:visible;enable-background:accumulate;font-family:Sans;-inkscape-font-specification:Sans"
           d="m -3394.65,36.123713 159.2054,159.205437 0,-79.60272 39.8014,0 c 88.3982,0 159.2054,70.80727 159.2054,159.20544 0,37.07142 -12.6016,71.30055 -33.5824,98.2596 l 55.9707,55.97066 c 35.4778,-41.69861 57.2144,-95.47839 57.2144,-154.23026 0,-131.41867 -107.3895,-238.808157 -238.8081,-238.808157 l -199.0068,0 z m 17.4131,84.577887 c -35.4778,41.69861 -57.2145,95.4784 -57.2145,154.23027 0,131.41867 107.3896,238.80815 238.8082,238.80815 l 199.0068,0 -159.2055,-159.20544 0,79.60272 -39.8013,0 c -88.3982,0 -159.2055,-70.80725 -159.2055,-159.20543 0,-37.07142 12.6016,-71.30056 33.5824,-98.25961 l -55.9706,-55.97066 z"
           id="path3085" />
        <path
           style="font-size:medium;font-style:normal;font-variant:normal;font-weight:normal;font-stretch:normal;text-indent:0;text-align:start;text-decoration:none;line-height:normal;letter-spacing:normal;word-spacing:normal;text-transform:none;direction:ltr;block-progression:tb;writing-mode:lr-tb;text-anchor:start;baseline-shift:baseline;color:#000000;fill:url(#linearGradient3093);fill-opacity:1;stroke:none;stroke-width:2;marker:none;visibility:visible;display:inline;overflow:visible;enable-background:accumulate;font-family:Sans;-inkscape-font-specification:Sans"
           d="m -3235.4406,115.72643 0,79.60272 19.9007,19.90068 0,-79.60272 39.8013,0 c 38.9948,0 74.4105,14.32475 101.991,37.31377 -29.1253,-34.94249 -72.4882,-57.21445 -121.8916,-57.21445 l -39.8014,0 z m 217.6637,1.24379 c 37.5356,42.21707 60.9458,97.32547 60.9458,157.96165 0,58.75186 -21.7366,112.53165 -57.2144,154.23026 l 19.9006,19.90068 c 35.4778,-41.69861 57.2145,-95.4784 57.2145,-154.23026 0,-70.7825 -31.5653,-134.04589 -80.8465,-177.86233 z m -303.4854,59.70204 c -20.9808,26.95905 -33.5824,61.18818 -33.5824,98.25961 0,49.40343 22.272,92.7663 57.2145,121.89166 -22.9891,-27.58055 -37.3138,-62.99624 -37.3138,-101.99098 0,-37.07143 12.6016,-71.30056 33.5824,-98.25961 l -19.9007,-19.90068 z m -32.3386,276.12193 c 43.8165,49.28129 107.0799,80.84651 177.8623,80.84651 l 199.0068,0 -19.9007,-19.90068 -199.0067,0 c -60.6362,0 -115.7446,-23.41024 -157.9617,-60.94583 z"
           id="path3087"
           inkscape:connector-curvature="0" />
        <path
           style="font-size:medium;font-style:normal;font-variant:normal;font-weight:normal;font-stretch:normal;text-indent:0;text-align:start;text-decoration:none;line-height:normal;letter-spacing:normal;word-spacing:normal;text-transform:none;direction:ltr;block-progression:tb;writing-mode:lr-tb;text-anchor:start;baseline-shift:baseline;color:#000000;fill:url(#linearGradient3095);fill-opacity:1;stroke:none;stroke-width:2;marker:none;visibility:visible;display:inline;overflow:visible;enable-background:accumulate;font-family:Sans;-inkscape-font-specification:Sans"
           d="m -3394.6501,36.123713 19.9007,19.90068 199.0068,0 c 60.6361,0 115.7446,23.41024 157.9616,60.945827 -43.8165,-49.281267 -107.0799,-80.846507 -177.8623,-80.846507 l -199.0068,0 z m 17.4131,84.577887 c -35.4778,41.69861 -57.2145,95.4784 -57.2145,154.23027 0,70.78248 31.5653,134.04588 80.8465,177.86232 -37.5356,-42.21706 -60.9458,-97.32545 -60.9458,-157.96164 0,-58.75187 21.7367,-112.53166 57.2145,-154.23027 l -19.9007,-19.90068 z m 303.4854,52.23928 c 22.989,27.58057 37.3137,62.99623 37.3137,101.99099 0,37.07142 -12.6016,71.30055 -33.5824,98.2596 l 19.9007,19.90068 c 20.9808,-26.95905 33.5824,-61.18818 33.5824,-98.2596 0,-49.40342 -22.272,-92.7663 -57.2144,-121.89167 z m -82.0903,181.59371 0,79.60271 -39.8014,0 c -38.9948,0 -74.4104,-14.32474 -101.991,-37.31377 29.1254,34.94249 72.4882,57.21445 121.8917,57.21445 l 39.8013,0 0,-79.60272 -19.9006,-19.90067 z"
           id="path3089"
           inkscape:connector-curvature="0" />
      </g>
    </g>
  </g>
</svg>
